X:1
T:Josephine
R:Waltz
C:Roger Tallroth
M:3/4
L:1/4
%%printtempo 0
Q:130
K:G
"G"DGA|Bdc|BAG|D2E|"C"C>CC|EGF|E3|
"D"D2D|"G"DGA|Bdc|"Bm"BAG|D2E|"C"C>CC|
EFG|"D"A3|1A2d :|2 A2 B/c/|:"G"dBd|g2f|"C"e3|"G"d2B|
"Am7"ced|cBA|"D"B>cB|ABc|"G"dBd|g2f|"C"e3|"G"d2 B|
"Am7"ced|"C"cBA|"D"B>cB|A>Bc|"G"BAG|"Am7"F2G|
"Bm"G3|"C"CDC|"G"B,DG|"D"FEF|"G"G3|1"G"GBc:|2 "G"G3|]
